!!!!SEGMENT: Lhe2016-Deus_in_nomine_tuo.krn
!!!id: Lhe2016
!!!AGN: Motet	
!!!SCT: Perkins (1969)
!!!voices: 5
!!!COM: Jean Lhéritier
!!!OTL: Deus in nomine tuo
**kern	**kern	**kern	**kern	**kern
*part5	*part4	*part3	*part2	*part1
*staff5	*staff4	*staff3	*staff2	*staff1
*I"Bassus	*I"Tenor II	*I"Tenor I	*I"Altus	*I"Superius
*I'B	*I'T. II	*I'T. I	*I'A	*I'S
*clefF4	*clefGv2	*clefGv2	*clefG2	*clefG2
*k[]	*k[]	*k[]	*k[]	*k[]
*C:	*C:	*C:	*C:	*C:
*M2/1	*M2/1	*M2/1	*M2/1	*M2/1
*met(C|)	*met(C|)	*met(C|)	*met(C|)	*met(C|)
!!section: Prima pars: Deus in nomine tuo
!!!OMD: Prima pars: Deus in nomine tuo
=1	=1	=1	=1	=1
0r	0g	0r	0r	0r
=2	=2	=2	=2	=2
0r	1g	0r	0r	1r
.	1e	.	.	[1cc
=3	=3	=3	=3	=3
0r	1.f	0r	0r	1cc]
.	.	.	.	[1cc
.	2c	.	.	.
=4	=4	=4	=4	=4
0r	2.e	1r	2r	2cc]
.	.	.	2c	2cc
.	4f	.	.	.
.	1g	2r	2.e	2b
.	.	2c	.	2g
.	.	.	4f	.
=5	=5	=5	=5	=5
0r	1c	2.e	2g	1cc
.	.	.	2e	.
.	.	4f	.	.
.	2.G	2g	2d	1b
.	.	2e	[2g	.
.	4A	.	.	.
=6	=6	=6	=6	=6
1r	2B	2d	4g]	1g
.	.	.	4f	.
.	2c	2c	4e	.
.	.	.	4d	.
2r	1A	2.e	2c	1cc
2C	.	.	[2e	.
.	.	4f	.	.
=7	=7	=7	=7	=7
2.E	2G	0g	2e]	2b
.	2c	.	4d	2ee
4F	.	.	4c	.
2G	2B	.	2g	2dd
2E	2G	.	2c	[2ee
=8	=8	=8	=8	=8
1A	1c	1c	2.e	4ee]
.	.	.	.	4dd
.	.	.	.	1cc
.	.	.	4f	.
1G	2r	1d	2g	.
.	2G	.	2g	2b
=9	=9	=9	=9	=9
2C	1.g	2.c	1e	0cc
2C	.	.	.	.
.	.	4B	.	.
[1c	.	1A	2r	.
.	2f	.	2c	.
=10	=10	=10	=10	=10
2c]	2e	1G	1.g	2r
2B	2d	.	.	2g
1A	1c	1r	.	[1cc
.	.	.	2f	.
=11	=11	=11	=11	=11
1G	2r	0r	2d	2cc]
.	2G	.	2e	2b
2F	2.c	.	2A	2a
2E	.	.	[2e	2g
.	4d	.	.	.
=12	=12	=12	=12	=12
1A	2e	1c	4e]	1cc
.	.	.	4d	.
.	2f	.	1c	.
1G	1d	[1g	.	2r
.	.	.	2B	2dd
=13	=13	=13	=13	=13
2C	1.e	2g]	1.c	1.gg
2C	.	2f	.	.
[1c	.	2e	.	.
.	2f	2d	2d	2ff
=14	=14	=14	=14	=14
2c]	1g	0c	1e	2ee
2B	.	.	.	2dd
2A	1a	.	1f	2cc
2F	.	.	.	[2ff
=15	=15	=15	=15	=15
1c	0g	2r	2c	2ff]
.	.	2c	1cc	1ee
1G	.	2d	.	.
.	.	2G	2b	[2dd
=16	=16	=16	=16	=16
2A	2e	1c	1a	4dd]
.	.	.	.	4cc
2F	2f	.	.	1cc
1G	1d	1r	[1g	.
.	.	.	.	2b
=17	=17	=17	=17	=17
[0C	1c	2r	2g]	0cc
.	.	1g	2e	.
.	2r	.	[1e	.
.	[2g	2g	.	.
=18	=18	=18	=18	=18
0C]	2g]	2e	0e]	1r
.	2g	2c	.	.
.	2e	1g	.	2r
.	2c	.	.	[2cc
=19	=19	=19	=19	=19
0r	1f	1a	0r	2cc]
.	.	.	.	2cc
.	1d	1f	.	2b
.	.	.	.	2a
=20	=20	=20	=20	=20
2r	1c	2e	0r	1cc
1F	.	2.A	.	.
.	2r	.	.	1a
.	.	4B	.	.
2F	[2c	4c	.	.
.	.	4d	.	.
=21	=21	=21	=21	=21
2E	2c]	1e	2r	1g
2C	2c	.	1c	.
2F	2A	2r	.	1r
2F	2A	[2f	2c	.
=22	=22	=22	=22	=22
1D	1F	2f]	2B	1r
.	.	2f	2A	.
2r	1A	2e	1c	2r
[2C	.	2c	.	[2cc
=23	=23	=23	=23	=23
4C]	1G	1e	2r	2cc]
4D	.	.	.	.
4E	.	.	1g	2cc
4F	.	.	.	.
2G	1r	1d	.	2b
2D	.	.	2f	2a
=24	=24	=24	=24	=24
2.A	0r	2c	2e	1cc
.	.	2e	2c	.
4G	.	.	.	.
1F	.	2d	1f	1a
.	.	[2c	.	.
=25	=25	=25	=25	=25
1G	2r	2c]	1d	0g
.	1d	2B	.	.
1C	.	2c	2e	.
.	2c	2e	[2g	.
=26	=26	=26	=26	=26
1D	2B	1d	2g]	0r
.	2A	.	2f	.
1C	1c	2G	2e	.
.	.	[2g	2c	.
=27	=27	=27	=27	=27
2r	1A	2g]	2e	0r
1c	.	2f	2f	.
.	1G	2e	1g	.
2B	.	2d	.	.
=28	=28	=28	=28	=28
2A	0r	2f	2r	1r
2G	.	2.g	2d	.
1c	.	.	2e	2r
.	.	4f	.	.
.	.	4e	[2g	2g
.	.	4d	.	.
=29	=29	=29	=29	=29
1A	2r	1c	2g]	2a
.	2A	.	2f#i	1cc
1G	2B	1d	[1g	.
.	[2d	.	.	2b
=30	=30	=30	=30	=30
1C	2d]	1e	1g]	2cc
.	2c#i	.	.	4g
.	.	.	.	4a
1G	1d	2r	2r	4b
.	.	.	.	4cc
.	.	2B	2g	[2dd
=31	=31	=31	=31	=31
1A	2r	1c	2e	4dd]
.	.	.	.	4cc
.	2A	.	2f	1cc
1G	2B	1d	[1g	.
.	[2d	.	.	2b
=32	=32	=32	=32	=32
1C	2d]	1e	1g]	2cc
.	2c	.	.	4g
.	.	.	.	4a
1G	2d	1B	2r	4b
.	.	.	.	4cc
.	2G	.	2g	[2dd
=33	=33	=33	=33	=33
1A	2c	1c	2e	4dd]
.	.	.	.	4cc
.	2A	.	2f	1cc
1G	1B	1d	[1g	.
.	.	.	.	2b
=34	=34	=34	=34	=34
[0C	2r	0c	2g]	2.ee
.	1G	.	1e	.
.	.	.	.	4dd
.	.	.	.	4cc
.	.	.	.	4b
.	2G	.	4d	[2ee
.	.	.	4c	.
=35	=35	=35	=35	=35
1C]	1c	2r	0g	4ee]
.	.	.	.	4dd
.	.	1G	.	1cc
1r	1d	.	.	.
.	.	2G	.	2b
=36	=36	=36	=36	=36
2r	1e	1c	0G	1cc
1c	.	.	.	.
.	[1g	1d	.	1r
2B	.	.	.	.
=37	=37	=37	=37	=37
1c	2g]	2e	0r	0r
.	1e	1g	.	.
1A	.	.	.	.
.	2c	2f	.	.
=38	=38	=38	=38	=38
0G	2g	2e	0r	2r
.	4G	2.d	.	1g
.	4A	.	.	.
.	4B	.	.	.
.	4c	4c	.	.
.	[2d	4B	.	2g
.	.	4A	.	.
=39	=39	=39	=39	=39
2E	2d]	2G	1r	1cc
2F	2c	1c	.	.
1D	1f	.	1d	1dd
.	.	2B	.	.
=40	=40	=40	=40	=40
2r	0e	0c	1.g	1.ee
1C	.	.	.	.
2C	.	.	2g	4dd
.	.	.	.	4cc
=41	=41	=41	=41	=41
2.G	1d	0r	1g	2.b
4A	.	.	.	4cc
2B	2r	.	1g	2dd
[2c	[2c	.	.	[2ee
=42	=42	=42	=42	=42
4c]	2c]	0r	2r	4ee]
4B	.	.	.	4dd
4A	2c	.	1c	4cc
4G	.	.	.	4b
1A	2e	.	.	4cc
.	.	.	.	4a
.	2f	.	2c	[2cc
=43	=43	=43	=43	=43
1.G	2.g	0r	2e	2cc]
.	.	.	2f	4b
.	8fL	.	.	4a
.	8eJ	.	.	.
.	2d	.	2g	2b
2A	2a	.	4f	2cc
.	.	.	4e	.
=44	=44	=44	=44	=44
2B	2g	0r	2d	2dd
1c	2e	.	2g	2.ee
.	2.a	.	2e	.
.	.	.	.	4dd
2A	.	.	[2a	4cc
.	4g	.	.	4b
=45	=45	=45	=45	=45
2d	2f	1r	4a]	2a
.	.	.	4f	.
2B	4e	.	2g	1dd
.	4d	.	.	.
1A	1e	2r	1a	.
.	.	2A	.	2cc#i
=46	=46	=46	=46	=46
2r	1d	2B-X	1f	1dd
2D	.	2A	.	.
2E	2r	[1c	[1g	1r
2C	2e	.	.	.
=47	=47	=47	=47	=47
2G	2e	2c]	1g]	0r
2G	2d	2B	.	.
1D	[1f	2A	2r	.
.	.	2F	2a	.
=48	=48	=48	=48	=48
0r	2f]	1c	2a	2r
.	2e	.	2g	2ee
.	1e	1A	[1cc	2ee
.	.	.	.	2cc
=49	=49	=49	=49	=49
1r	1d	2r	2cc]	1.ff
.	.	2d	2b	.
2r	1r	2d	1a	.
2A	.	2c	.	2ee
=50	=50	=50	=50	=50
2A	0r	1.f	2r	0cc
2F	.	.	2a	.
[1c	.	.	2a	.
.	.	2e	2g	.
=51	=51	=51	=51	=51
2c]	2r	0e	1.cc	2r
2A	2a	.	.	2ee
1A	2a	.	.	2ee
.	2a	.	2a	2cc
=52	=52	=52	=52	=52
1r	2.f	2r	0a	1.ff
.	.	2d	.	.
.	4e	.	.	.
2r	2d	2d	.	.
2A	2e	2c	.	2ee
=53	=53	=53	=53	=53
2A	1A	1.f	2r	2.cc
2F	.	.	2a	.
.	.	.	.	4b
1c	2r	.	2a	4cc
.	.	.	.	4dd
.	2c	2e	2g	[2ee
=54	=54	=54	=54	=54
1A	2c	1c	2cc	4ee]
.	.	.	.	4dd
.	2A	.	2f	1cc
1G	2B	1d	1g	.
.	2G	.	.	2b
=55	=55	=55	=55	=55
2C	2G	1c	1e	0cc
2C	1g	.	.	.
[1c	.	1r	2r	.
.	2f	.	2c	.
=56	=56	=56	=56	=56
2c]	2e	1G	1.g	1r
2B	2.d	.	.	.
1A	.	1c	.	1ee
.	4c	.	.	.
.	[2c	.	2f	.
=57	=57	=57	=57	=57
2.G	2c]	0r	2e	1gg
.	2B	.	2.d	.
4F	.	.	.	.
2E	1c	.	.	2r
.	.	.	4c	.
2F	.	.	[2c	2cc
=58	=58	=58	=58	=58
1D	0r	1d	2c]	1.ff
.	.	.	2B	.
[1C	.	[1g	2c	.
.	.	.	2c	2ee
=59	=59	=59	=59	=59
1C]	0r	2g]	1.cc	1ee
.	.	2e	.	.
2r	.	2f	.	1dd
2G	.	2g	2b	.
=60	=60	=60	=60	=60
1c	0r	2e	2g	1cc
.	.	2c	2.a	.
2B-X	.	2f	.	2dd
.	.	.	4g	.
2c	.	[2e	[2g	2g
=61	=61	=61	=61	=61
1A	0r	2e]	2g]	1cc
.	.	2c	2f#i	.
1G	.	2d	2g	2b
.	.	2B	2d	[2dd
=62	=62	=62	=62	=62
0r	1G	2r	1g	4dd]
.	.	.	.	4cc
.	.	2e	.	4b
.	.	.	.	4a
.	1c	2e	1r	2g
.	.	2c	.	[2a
=63	=63	=63	=63	=63
1G	2B	2d	2r	4a]
.	.	.	.	4g
.	2G	2e	1e	1g
1c	1A	1c	.	.
.	.	.	2c	2f#i
=64	=64	=64	=64	=64
2B	1G	0r	2d	1g
2G	.	.	2e	.
1A	1e	.	1c	[1cc
=65	=65	=65	=65	=65
2.G	1.g	2r	1d	2cc]
.	.	2G	.	2b
4F	.	.	.	.
2E	.	1c	1r	2g
2F	2f	.	.	[2a
=66	=66	=66	=66	=66
2G	2d	2B	0r	4a]
.	.	.	.	4g
2E	2c	2G	.	1g
1D	[1d	1A	.	.
.	.	.	.	2f#i
=67	=67	=67	=67	=67
2r	2d]	1G	2r	[0g
1G	1B	.	1d	.
.	.	1r	.	.
2G	4A	.	2d	.
.	4G	.	.	.
=68	=68	=68	=68	=68
2E	1c	1.G	1e	1g]
2C	.	.	.	.
2E	1B	.	[1g	1r
2E	.	2G	.	.
=69	=69	=69	=69	=69
1D	0r	1A	2g]	1r
.	.	.	2f	.
1r	.	[1c	2e	[1g
.	.	.	4c	.
.	.	.	4d	.
=70	=70	=70	=70	=70
0r	1.c	2c]	4e	2g]
.	.	.	4f	.
.	.	2B	1g	2g
.	.	1A	.	2a
.	2c	.	2f#i	[2cc
=71	=71	=71	=71	=71
0r	1d	1G	1g	2cc]
.	.	.	.	2b
.	[1f	1r	1d	2a
.	.	.	.	4f
.	.	.	.	4g
=72	=72	=72	=72	=72
0r	2f]	1r	2r	4a
.	.	.	.	4b
.	2e	.	1g	1cc
.	1d	[1G	.	.
.	.	.	2g	2b
=73	=73	=73	=73	=73
1.C	2c	2G]	2e	0cc
.	2.e	2G	2c	.
.	.	2A	1e	.
.	4d	.	.	.
2C	4c	[2c	.	.
.	4B	.	.	.
=74	=74	=74	=74	=74
1D	2A	2c]	1d	1r
.	4F	2B	.	.
.	4G	.	.	.
[1F	4A	2A	1c	[1cc
.	4B	.	.	.
.	[2c	4F	.	.
.	.	4G	.	.
=75	=75	=75	=75	=75
2F]	4c]	4A	2r	2cc]
.	4B	4B	.	.
2F	4A	1c	1f	2cc
.	4G	.	.	.
1D	2A	.	.	2dd
.	2F	2B	2f	[2ff
=76	=76	=76	=76	=76
1C	2r	1c	2g	2ff]
.	2c	.	1a	2ee
1r	2f	1r	.	2cc
.	2d	.	2f	[2dd
=77	=77	=77	=77	=77
0r	2e	1r	2g	4dd]
.	.	.	.	4cc
.	2f	.	1a	1cc
.	1d	2r	.	.
.	.	[2f	4g	2b
.	.	.	4f	.
=78	=78	=78	=78	=78
1r	2.c	2f]	1g	0cc
.	.	2e	.	.
.	4B	.	.	.
2r	2A	1f	1a	.
[2c	2F	.	.	.
=79	=79	=79	=79	=79
2c]	1G	1d	0g	0r
2B	.	.	.	.
1c	2r	[1e	.	.
.	[2g	.	.	.
=80	=80	=80	=80	=80
1A	2g]	2e]	2r	0r
.	2f	4d	1c	.
.	.	4c	.	.
1G	2g	1d	.	.
.	2g	.	2B	.
=81	=81	=81	=81	=81
2.A	2e	2r	2.c	0r
.	4c	1c	.	.
4B	4d	.	4B	.
2c	4e	.	2A	.
.	4f	.	.	.
[2d	[2g	2B	2G	.
=82	=82	=82	=82	=82
4d]	2g]	1A	2.c	0r
4c	.	.	.	.
1c	2f#i	.	.	.
.	.	.	4d	.
.	2g	1G	4e	.
.	.	.	4f	.
2B	2G	.	[2g	.
=83	=83	=83	=83	=83
1A	1c	0r	2g]	2r
.	.	.	2f#i	1cc
1G	1d	.	[1g	.
.	.	.	.	2b
=84	=84	=84	=84	=84
1c	1e	2r	1g]	1cc
.	.	1g	.	.
1F	2r	.	1r	1a
.	[2c	2f	.	.
=85	=85	=85	=85	=85
1G	2c]	2e	1r	1.g
.	2B	2d	.	.
1C	2c	1e	2r	.
.	2c	.	[2c	2g
=86	=86	=86	=86	=86
0r	2G	2d	2c]	1g
.	2d	1g	2B	.
.	2e	.	2c	1cc
.	2c	2f	2A	.
=87	=87	=87	=87	=87
0r	4d	2g	1G	2.b
.	4c	.	.	.
.	4B	2e	.	.
.	4A	.	.	4cc
.	2B	2d	[1g	2dd
.	[2c	4c	.	[2ee
.	.	4d	.	.
=88	=88	=88	=88	=88
0r	4c]	4e	2g]	2ee]
.	4B	4f	.	.
.	4A	1g	2g	2dd
.	4G	.	.	.
.	1A	.	1c	1cc
.	.	2f#i	.	.
=89	=89	=89	=89	=89
2r	0G	2g	2d	1b
1d	.	2G	1g	.
.	.	2.B	.	1r
2d	.	.	2g	.
.	.	4c	.	.
=90	=90	=90	=90	=90
2d	2r	1d	2g	2r
2B	1g	.	2b	2dd
2c	.	1r	2a	2ee
2d	2f	.	2a	[2dd
=91	=91	=91	=91	=91
1G	2g	2r	1g	2dd]
.	2d	2G	.	2b
2r	1f	2A	1r	2cc
2D	.	2B	.	2dd
=92	=92	=92	=92	=92
2E	1e	2c	2r	1g
2C	.	1g	1c	.
1G	2d	.	.	1r
.	2d	2g	2B	.
=93	=93	=93	=93	=93
2r	2e	2g	2c	0r
2C	2e	2e	2G	.
2D	1d	2f	2B-X	.
2E	.	2g	2B-i	.
=94	=94	=94	=94	=94
1F	2r	2c	1A	1.cc
.	1a	1f	.	.
1r	.	.	1r	.
.	2g	2c	.	2cc
=95	=95	=95	=95	=95
0r	1g	1e	0r	1b
.	1f	1d	.	1b
=96	=96	=96	=96	=96
1.c	1g	2c	1.e	1cc
.	.	1g	.	.
.	1r	.	.	1r
2G	.	2g	2d	.
=97	=97	=97	=97	=97
1B-X	0r	1f	1d	1r
1A	.	1f	1c	[1cc
=98	=98	=98	=98	=98
0G	0r	2g	1d	2cc]
.	.	4f	.	2cc
.	.	4e	.	.
.	.	1d	2r	2b
.	.	.	[2g	2b
=99	=99	=99	=99	=99
2r	1.e	1c	2g]	2.cc
1c	.	.	2g	.
.	.	.	.	4dd
.	.	2r	2a	4ee
.	.	.	.	4cc
2B	2d	2d	2b	[2ff
=100	=100	=100	=100	=100
2c	2.e	2g	2g	4ff]
.	.	.	.	4ee
2c	.	2g	2.c	1ee
.	4f	.	.	.
2.C	2g	2e	.	.
.	.	.	4d	.
.	[2e	[2g	4e	4dd
4D	.	.	4f	4cc
=101	=101	=101	=101	=101
4E	2e]	2g]	4g	2.b
4F	.	.	4a	.
4G	4d	4f	2.b	.
4A	4c	4e	.	4cc
2B	2g	2d	.	2dd
.	.	.	4g	.
2c	2e	2A	2a	[2ee
=102	=102	=102	=102	=102
2G	4g	2d	2b	4ee]
.	4f	.	.	4dd
2B	4e	2G	2g	1dd
.	4d	.	.	.
1A	1e	1c	1a	.
.	.	.	.	2cc#i
=103	=103	=103	=103	=103
1D	0d	1A	2f	0dd
.	.	.	2a	.
1r	.	2r	2a	.
.	.	2a	2a	.
=104	=104	=104	=104	=104
1d	0r	2a	2f	2r
.	.	2a	2d	1dd
2d	.	2f	2a	.
2d	.	2d	2a	2dd
=105	=105	=105	=105	=105
2B	1r	1.g	1d	2dd
2G	.	.	.	2b
[1c	1g	.	1e	2g
.	.	2f	.	2g
=106	=106	=106	=106	=106
2c]	2g	2e	0r	1cc
2B	2g	1d	.	.
1A	2f	.	.	1cc
.	2e	2c	.	.
=107	=107	=107	=107	=107
2.G	1.g	1d	1r	2b
.	.	.	.	2dd
4F	.	.	.	.
1D	.	2r	2r	2dd
.	2f	2d	2a	2dd
=108	=108	=108	=108	=108
1A	1e	2e	2a	2cc
.	.	2c	2a	2a
1B-X	1d	[1f	2f	1dd
.	.	.	2d	.
=109	=109	=109	=109	=109
1A	1r	2f]	2.a	4cc
.	.	.	.	4dd
.	.	2e	.	4ee
.	.	.	8gL	4cc
.	.	.	8aJ	.
1r	2r	2d	2b	2dd
.	2c	2A	[2a	[2ff
=110	=110	=110	=110	=110
1r	2d	1B	2a]	2ff]
.	2d	.	2g	4ee
.	.	.	.	4dd
2r	1e	4A	[1a	1cc
.	.	4B	.	.
2A	.	4c	.	.
.	.	4d	.	.
=111	=111	=111	=111	=111
2A	1c	2e	0a_	2r
2A	.	2f	.	2cc
2F	1f	1d	.	2dd
2D	.	.	.	2dd
=112	=112	=112	=112	=112
1A	2e	2r	1a]	2ee
.	1f	2c	.	2cc
1D	.	2d	1r	1ff
.	4e	2d	.	.
.	4d	.	.	.
=113	=113	=113	=113	=113
2r	2c	2e	2g	1.ee
1c	2c	2c	2a	.
.	2d	1f	2a	.
2B	2d	.	2b	2dd
=114	=114	=114	=114	=114
2c	2e	2e	2g	1cc
2A	2c	2f	1cc	.
1G	2.g	2d	.	1r
.	.	[2g	2b	.
.	4f	.	.	.
=115	=115	=115	=115	=115
1A	2e	2g]	1cc	2r
.	4d	2f#i	.	2cc
.	4c	.	.	.
2.G	2B	1g	1r	2dd
.	[2d	.	.	2dd
4F	.	.	.	.
=116	=116	=116	=116	=116
2E	4d]	2r	1r	2ee
.	4c	.	.	.
2F	1c	2c	.	2cc
1D	.	2d	2r	1ff
.	2B	2d	2f	.
=117	=117	=117	=117	=117
1C	1c	2e	2g	2.ee
.	.	2c	2g	.
.	.	.	.	4dd
1r	1r	1f	2a	4cc
.	.	.	.	4b
.	.	.	2f	[2dd
=118	=118	=118	=118	=118
1r	0r	2e	2.g	4dd]
.	.	.	.	4cc
.	.	4d	.	1cc
.	.	4c	4e	.
2r	.	1d	2f	.
2G	.	.	2g	2b
=119	=119	=119	=119	=119
2A	2r	2.c	2e	1cc
2A	2c	.	2f	.
.	.	8BL	.	.
.	.	8AJ	.	.
2B	2d	2G	1g	1r
2G	2d	2B	.	.
=120	=120	=120	=120	=120
1.c	2e	1A	1r	2r
.	2c	.	.	2cc
.	[1g	1G	2r	2dd
2B	.	.	2g	2dd
=121	=121	=121	=121	=121
1A	2g]	2r	2a	2ee
.	2f#i	2c	2a	2cc
1G	[1g	2d	2b	[1gg
.	.	2d	2g	.
=122	=122	=122	=122	=122
1C	1g]	2e	1.cc	2gg]
.	.	2c	.	2ff
2C	1G	[1g	.	2ee
2D	.	.	2b	[2dd
=123	=123	=123	=123	=123
2E	2G	2g]	1g	4dd]
.	.	.	.	4cc
2C	2A	4f	.	1cc
.	.	4e	.	.
1G	2B	1d	2r	.
.	2G	.	[2g	2b
=124	=124	=124	=124	=124
[0Cl	1.c	[0cl	2g]	[0ccl
.	.	.	2e	.
.	.	.	1e	.
.	4B	.	.	.
.	4A	.	.	.
=	=	=	=	=
00C]	00G	00c]	00e	00cc]
=||	=||	=||	=||	=||
*M2/1	*M2/1	*M2/1	*M2/`	*M2/1
*met(C|)	*met(C|)	*met(C|)	*met(C|)	*met(C|)
!	!	!	!	!LO:TX:a:t=Secunda pars&colon; Ecce enim Deus
0r	0r	1.g	0r	0r
.	.	2f	.	.
=125	=125	=125	=125	=125
0r	0r	2e	0r	0r
.	.	2d	.	.
.	.	1f	.	.
=126	=126	=126	=126	=126
1.c	0r	0g	0r	0r
2B	.	.	.	.
=127	=127	=127	=127	=127
2A	0r	2f	0r	0r
2G	.	2e	.	.
1B	.	1d	.	.
=128	=128	=128	=128	=128
1c	0r	2c	1.g	0r
.	.	2e	.	.
2B	.	2d	.	.
2A	.	[2c	2f	.
=129	=129	=129	=129	=129
1G	0r	2c]	2e	1r
.	.	2B	2d	.
2.F	.	[1c	1f	[1cc
4E	.	.	.	.
=130	=130	=130	=130	=130
4C	0r	0c]	1g	2cc]
4D	.	.	.	.
2E	.	.	.	2b
2F	.	.	2f	2a
2C	.	.	2e	2g
=131	=131	=131	=131	=131
1G	1.g	0r	1d	1b
1A	.	.	1c	[1cc
.	2f	.	.	.
=132	=132	=132	=132	=132
1G	2e	0r	1r	2cc]
.	2d	.	.	2b
1r	1f	.	1d	2a
.	.	.	.	2a
=133	=133	=133	=133	=133
2r	1g	1G	1.b-X	1g
2.d	.	.	.	.
.	2f	2B-X	.	1r
4c	.	.	.	.
[2c	2e	2c	2a	.
=134	=134	=134	=134	=134
2c]	1d	1G	1g	1dd
2B	.	.	.	.
1c	1c	1r	2r	[1ee
.	.	.	2g	.
=135	=135	=135	=135	=135
0r	1G	2r	1.b	2ee]
.	.	2d	.	2dd
.	2A	[1f	.	[1cc
.	4F	.	2a	.
.	4G	.	.	.
=136	=136	=136	=136	=136
0r	4A	2f]	2a	1cc]
.	4B	.	.	.
.	1c	2e	2g	.
.	.	1d	2a	1dd
.	2B	.	2b	.
=137	=137	=137	=137	=137
1r	1c	1.g	2e	1ee
.	.	.	2cc	.
2r	1r	.	2cc	1dd
2G	.	2d	2b	.
=138	=138	=138	=138	=138
2A	0r	1f	1a	1cc
2F	.	.	.	.
[1c	.	1e	1g	2r
.	.	.	.	2g
=139	=139	=139	=139	=139
2c]	1r	2r	0r	2a
2B-X	.	2d	.	2g
1A	2r	2e	.	[1cc
.	2c	2c	.	.
=140	=140	=140	=140	=140
1G	2d	1g	0r	2cc]
.	2e	.	.	2b
1F	[1f	2c	.	1a
.	.	[2d	.	.
=141	=141	=141	=141	=141
0G	2f]	4d]	1r	0g
.	.	4c	.	.
.	2e	1c	.	.
.	2d	.	2r	.
.	2d	2B	2d	.
=142	=142	=142	=142	=142
2r	1c	1A	2e	1a
2c	.	.	2c	.
2c	2r	1G	[1g	1r
2B	2d	.	.	.
=143	=143	=143	=143	=143
1A	2e	2r	2g]	0r
.	2c	2c	2f	.
1G	[1g	2c	2e	.
.	.	2B	2d	.
=144	=144	=144	=144	=144
2r	2g]	1A	2e	1r
2c	2f	.	2c	.
2c	2e	1G	1g	2r
2B	2d	.	.	2dd
=145	=145	=145	=145	=145
1c	2g	0r	2r	2.ee
.	1g	.	2cc	.
.	.	.	.	8ddL
.	.	.	.	8ccJ
2G	.	.	2cc	2ee
2G	2g	.	2b	[2dd
=146	=146	=146	=146	=146
2A	2e	1r	1a	4dd]
.	.	.	.	4cc
2F	2f	.	.	1cc
1G	1d	2r	[1g	.
.	.	[2G	.	2b
=147	=147	=147	=147	=147
1C	2r	2G]	2g]	[0cc
.	1c	2G	2e	.
2r	.	1g	1e	.
[2C	2c	.	.	.
=148	=148	=148	=148	=148
2C]	1g	2e	2r	0cc]
2C	.	4c	1g	.
.	.	4d	.	.
1c	1e	4e	.	.
.	.	4f	.	.
.	.	[2g	2g	.
=149	=149	=149	=149	=149
1A	1c	2g]	1cc	0r
.	.	2f#i	.	.
[1G	2r	1g	1b	.
.	2d	.	.	.
=150	=150	=150	=150	=150
1G]	2B	2r	0g	0r
.	2G	2d	.	.
2r	2.d	2B	.	.
2d	.	2G	.	.
.	4e	.	.	.
=151	=151	=151	=151	=151
2B	2f	2.d	2r	0r
2G	2g	.	2g	.
.	.	4e	.	.
1d	2a	4f	2f	.
.	.	4g	.	.
.	[2f	[2a	2d	.
=152	=152	=152	=152	=152
1B	2f]	4a]	2f	2r
.	.	4g	.	.
.	4e	1g	2g	2dd
.	4d	.	.	.
1A	2f	.	1a	2cc
.	2c	2f#i	.	2a
=153	=153	=153	=153	=153
0r	1e	2g	1r	2.b
.	.	2g	.	.
.	.	.	.	4cc
.	1d	2f	1a	4dd
.	.	.	.	4ee
.	.	2d	.	2ff
=154	=154	=154	=154	=154
1r	0r	1g	1.b	2ee
.	.	.	.	1dd
2r	.	1e	.	.
2c	.	.	2g	2cc
=155	=155	=155	=155	=155
2B	2r	0d	1g	[0dd
2.G	2g	.	.	.
.	2g	.	1b	.
4A	.	.	.	.
4B	2d	.	.	.
4c	.	.	.	.
=156	=156	=156	=156	=156
2d	2.f	1r	[0a	1dd]
2.D	.	.	.	.
.	4e	.	.	.
.	4d	2r	.	1r
4E	4c	.	.	.
4F	2f	2d	.	.
4G	.	.	.	.
=157	=157	=157	=157	=157
2A	2e	2c	1a]	2r
4F	1f	2A	.	1cc
4G	.	.	.	.
4A	.	2c	2r	.
4B	.	.	.	.
[2c	2e	2c	[2g	2cc
=158	=158	=158	=158	=158
2c]	1d	1G	2g]	2dd
2B	.	.	2g	2dd
1c	1c	2r	2g	1ee
.	.	[2c	2g	.
=159	=159	=159	=159	=159
2r	0r	2c]	2a	2cc
1F	.	2c	2f	2.ff
.	.	2d	1a	.
.	.	.	.	4ee
2F	.	2d	.	4dd
.	.	.	.	4cc
=160	=160	=160	=160	=160
2G	0r	1e	1g	1b
2G	.	.	.	.
2A	.	2c	1r	1cc
2F	.	[2f	.	.
=161	=161	=161	=161	=161
2.B-i	0r	4f]	0r	1r
.	.	4e	.	.
.	.	4d	.	.
4A	.	4c	.	.
4G	.	4B	.	[1dd
4F	.	4A	.	.
[2G	.	[2B	.	.
=162	=162	=162	=162	=162
2G]	0r	4B]	1.d	2dd]
.	.	4G	.	.
4F	.	1c	.	2ee
4E	.	.	.	.
1D	.	.	.	[1ff
.	.	2B	2d	.
=163	=163	=163	=163	=163
1C	2r	1c	1g	2ff]
.	1G	.	.	2ee
1r	.	1r	1g	2dd
.	2G	.	.	4cc
.	.	.	.	4b
=164	=164	=164	=164	=164
0r	2.d	1r	2.f	1a
.	4e	.	4g	.
.	2f	2r	2a	2r
.	[2g	[2G	[2b-i	[2dd
=165	=165	=165	=165	=165
0r	2g]	2G]	2b-]	2dd]
.	4f	2G	4a	2ee
.	4e	.	4g	.
.	2d	2.d	2a	[1ff
.	[2a	.	2f	.
.	.	4e	.	.
=166	=166	=166	=166	=166
1r	4a]	2f	2cc	2ff]
.	4g	.	.	.
.	1g	2g	2b	2ee
1D	.	1d	1a	1dd
.	2f#i	.	.	.
=167	=167	=167	=167	=167
2.G	1g	1d	2d	2b
.	.	.	2.b-X	1dd
4A	.	.	.	.
2B	2f	1r	.	.
.	.	.	4a	.
2c	[2e	.	[2g	2ee
=168	=168	=168	=168	=168
1A	2e]	0r	2g]	2cc
.	4d	.	2f	4b
.	4c	.	.	4a
1G	1g	.	2e	2b
.	.	.	2d	[2dd
=169	=169	=169	=169	=169
2A	2e	1r	1a	2dd]
2F	2f	.	.	1cc
1G	1d	2r	1g	.
.	.	[2g	.	2b
=170	=170	=170	=170	=170
0C	[0c	2g]	1e	[0cc
.	.	2g	.	.
.	.	2a	2r	.
.	.	2g	[2g	.
=171	=171	=171	=171	=171
1r	0c]	0e	2g]	0cc]
.	.	.	2g	.
2r	.	.	2a	.
[2c	.	.	2g	.
=172	=172	=172	=172	=172
2c]	0r	0r	2.e	1r
2c	.	.	.	.
.	.	.	4c	.
2d	.	.	2f	2r
2c	.	.	2g	[2cc
=173	=173	=173	=173	=173
2.A	0r	0r	1a	2cc]
.	.	.	.	2cc
4A	.	.	.	.
2B	.	.	1g	2dd
2c	.	.	.	2cc
=174	=174	=174	=174	=174
0d	0r	0r	0f	2.a
.	.	.	.	4f
.	.	.	.	2a
.	.	.	.	2b
=175	=175	=175	=175	=175
2c	2r	0r	2e	2cc
2B	1g	.	2d	2.dd
1c	.	.	1e	.
.	.	.	.	4cc
.	2g	.	.	[2cc
=176	=176	=176	=176	=176
2F	2a	2r	1d	2cc]
2G	2g	1g	.	2b
1C	2.e	.	[1c	[1cc
.	.	2g	.	.
.	4c	.	.	.
=177	=177	=177	=177	=177
2r	2f	2a	1c]	0cc_
1c	2g	2g	.	.
.	1a	2.e	1r	.
2A	.	.	.	.
.	.	4c	.	.
=178	=178	=178	=178	=178
1.c	2.g	2e	0r	1cc]
.	.	2f	.	.
.	4f	.	.	.
.	4e	2g	.	1r
.	4d	.	.	.
2c	[2e	[2a	.	.
=179	=179	=179	=179	=179
1B	2e]	4a]	2r	0r
.	.	4g	.	.
.	1d	1g	2g	.
1A	.	.	2cc	.
.	2c	2f#i	2cc	.
=180	=180	=180	=180	=180
0G	0d	1g	1b	2r
.	.	.	.	2dd
.	.	1r	2g	2gg
.	.	.	[2b	2gg
=181	=181	=181	=181	=181
0r	0r	2r	2b]	1ff
.	.	2d	2a	.
.	.	2g	2b	[1dd
.	.	2g	2b	.
=182	=182	=182	=182	=182
0r	0r	1f	1.a	2dd]
.	.	.	.	2cc
.	.	2d	.	2ff
.	.	[2g	[2b	2dd
=183	=183	=183	=183	=183
0r	0r	2g]	2b]	1ee
.	.	2e	4a	.
.	.	.	4g	.
.	.	2f	2a	1dd
.	.	2g	2b	.
=184	=184	=184	=184	=184
1r	0r	2d	2a	1.dd
.	.	2.g	2.b-i	.
2r	.	.	.	.
.	.	4f	4a	.
2G	.	4e	4g	2dd
.	.	4d	4f	.
=185	=185	=185	=185	=185
2c	1r	2e	1.g	2cc
2c	.	2e	.	4g
.	.	.	.	4a
1B	2r	1d	.	4b
.	.	.	.	4cc
.	2d	.	2f	[2dd
=186	=186	=186	=186	=186
2G	2g	1r	1e	2dd]
2c	2g	.	.	2cc
2c	1f	2r	1d	1dd
2B-X	.	2d	.	.
=187	=187	=187	=187	=187
2.c	1e	2g	1r	2r
.	.	2g	.	2g
4B	.	.	.	.
2A	1r	1f	2r	2cc
2F	.	.	2c	2cc
=188	=188	=188	=188	=188
1G	2r	1d	2g	1b
.	2d	.	2g	.
2C	2g	1r	1e	1g
2c	2g	.	.	.
=189	=189	=189	=189	=189
2c	1f	1r	1d	1r
2B	.	.	.	.
2.c	2e	2r	1r	2r
.	[2c	2g	.	2g
4B	.	.	.	.
=190	=190	=190	=190	=190
2A	4c]	2g	1r	2cc
.	4c	.	.	.
2A	2c	2f	.	2cc
1G	2d	2g	2r	1b
.	2B	2d	2g	.
=191	=191	=191	=191	=191
0r	2c	2e	2g	2g
.	2A	2c	2f	1cc
.	1G	1d	1g	.
.	.	.	.	2b
=192	=192	=192	=192	=192
1.c	2r	2r	2e	0cc
.	2g	1e	2c	.
.	2g	.	2e	.
2A	[2a	2c	2f	.
=193	=193	=193	=193	=193
2B	4a]	2d	1g	0r
.	4g	.	.	.
2c	1g	2e	.	.
1A	.	1c	2r	.
.	2f#i	.	2a	.
=194	=194	=194	=194	=194
1G	2g	0d	2b	2r
.	1G	.	2g	1dd
1r	.	.	2b	.
.	2G	.	2b	2dd
=195	=195	=195	=195	=195
2r	1d	0r	2a	1ff
2D	.	.	1a	.
2A	1c	.	.	2ee
2F	.	.	2a	[2ff
=196	=196	=196	=196	=196
1B-X	1.d	0r	1f	4ff]
.	.	.	.	4ee
.	.	.	.	4dd
.	.	.	.	4cc
1B-i	.	.	1g	1dd
.	2e	.	.	.
=197	=197	=197	=197	=197
1A	1f	2r	1a	[0cc
.	.	1c	.	.
1r	1e	.	1g	.
.	.	2c	.	.
=198	=198	=198	=198	=198
1.F	0r	2f	0r	0cc]
.	.	2g	.	.
.	.	1a	.	.
2F	.	.	.	.
=199	=199	=199	=199	=199
2c	0r	1.g	0r	0r
2c	.	.	.	.
1d	.	.	.	.
.	.	2f	.	.
=200	=200	=200	=200	=200
2c	0r	2e	0r	1r
2B	.	2d	.	.
2c	.	2e	.	[1g
4B	.	2c	.	.
4A	.	.	.	.
=201	=201	=201	=201	=201
2G	0r	2d	2r	2g]
2E	.	2.e	1c	2g
1A	.	.	.	2cc
.	.	4d	.	.
.	.	[2c	2c	2cc
=202	=202	=202	=202	=202
1G	1r	2c]	1.g	1dd
.	.	2B	.	.
1C	[1G	1c	.	2.ee
.	.	.	2a	.
.	.	.	.	4cc
=203	=203	=203	=203	=203
0r	2G]	0r	1b	2dd
.	2G	.	.	2ee
.	2d	.	2a	2ff
.	2e	.	2g	2gg
=204	=204	=204	=204	=204
0r	1f	0r	2a	2.cc
.	.	.	2a	.
.	.	.	.	4dd
.	2.e	.	2.g	4ee
.	.	.	.	4ff
.	.	.	.	2gg
.	4c	.	4a	.
=205	=205	=205	=205	=205
1r	2d	0r	4b	2ff
.	.	.	4a	.
.	2e	.	1cc	2ee
2r	2f	.	.	1dd
2G	2g	.	2b	.
=206	=206	=206	=206	=206
2A	0c	2r	4cc	1cc
.	.	.	4b	.
2F	.	2f	4a	.
.	.	.	4g	.
2.A	.	2e	1a	2r
.	.	2c	.	2ff
4B	.	.	.	.
=207	=207	=207	=207	=207
2.c	1r	2.e	1g	2ee
.	.	.	.	2cc
8BL	.	4f	.	.
8AJ	.	.	.	.
2G	1B-X	2g	1r	2dd
4D	.	2f	.	2dd
4E	.	.	.	.
=208	=208	=208	=208	=208
4F	2A	1.a	1f	1cc
4G	.	.	.	.
4A	2F	.	.	.
4B	.	.	.	.
4c	2A	.	2e	1r
4d	.	.	.	.
[2c	2A	2f	2c	.
=209	=209	=209	=209	=209
2c]	1G	1.g	2d	2r
2B	.	.	2d	2gg
[1c	1r	.	1c	2ee
.	.	2e	.	2cc
=210	=210	=210	=210	=210
0c]	1g	1e	0r	2ee
.	.	.	.	2ff
.	2e	2r	.	1gg
.	2c	2c	.	.
=211	=211	=211	=211	=211
0r	2e	2A	0r	2cc
.	2g	2G	.	2.dd
.	2f	2B-X	.	.
.	.	.	.	4cc
.	2e	2c	.	[2cc
=212	=212	=212	=212	=212
1r	1d	2G	1g	2cc]
.	.	2G	.	2b
2r	1c	2.A	2e	[1cc
2c	.	.	2c	.
.	.	4B	.	.
=213	=213	=213	=213	=213
2A	0r	1c	2e	2cc]
2F	.	.	2f	2dd
2c	.	1r	2g	2ee
2A	.	.	[2a	[2ff
=214	=214	=214	=214	=214
2B	2r	0r	2a]	2ff]
2c	2c	.	2g	1ee
1A	2e	.	1c	.
.	2f	.	.	4dd
.	.	.	.	4cc
=215	=215	=215	=215	=215
1G	1g	0r	0d	2b
.	.	.	.	2.dd
1B	2f	.	.	.
.	.	.	.	4cc
.	2g	.	.	4b
.	.	.	.	4a
=216	=216	=216	=216	=216
2c	2e	0r	0r	2g
2A	2.f	.	.	2cc
2B	.	.	.	2dd
.	4d	.	.	.
2c	[2g	.	.	[2ee
=217	=217	=217	=217	=217
1A	2g]	2r	1r	2ee]
.	2f#i	2c	.	4dd
.	.	.	.	4cc
1G	1g	2d	2r	1b
.	.	2e	2g	.
=218	=218	=218	=218	=218
0r	0r	2f	2a	2r
.	.	2g	2b	2dd
.	.	1c	[1cc	2ee
.	.	.	.	2ff
=219	=219	=219	=219	=219
2r	0r	1r	2cc]	1.gg
2G	.	.	2b	.
2A	.	2r	2a	.
2B	.	2d	2a	2ff
=220	=220	=220	=220	=220
1.c	1r	2e	1g	2ee
.	.	2f	.	2ee
.	2r	[1g	1G	1dd
2B	2d	.	.	.
=221	=221	=221	=221	=221
2A	2e	2g]	2c	1r
2A	2f	2f	1c	.
1G	[1g	2e	.	2r
.	.	2d	2B	2dd
=222	=222	=222	=222	=222
0r	2g]	1.c	1c	2ee
.	2f	.	.	2ff
.	2e	.	2r	[1gg
.	2e	2c	2g	.
=223	=223	=223	=223	=223
0r	2.d	2f	2a	2gg]
.	.	2f	2b	2ff
.	4d	.	.	.
.	2c	2.g	2cc	2ee
.	2G	.	2b	[2dd
.	.	4f	.	.
=224	=224	=224	=224	=224
1r	2A	2e	1a	4dd]
.	.	.	.	4cc
.	2F	2f	.	1cc
2r	1G	1d	1g	.
2G	.	.	.	2b
=225	=225	=225	=225	=225
2A	0r	1c	2e	1cc
2B	.	.	2.g	.
[1c	.	1r	.	1r
.	.	.	4f	.
.	.	.	4e	.
.	.	.	4d	.
=226	=226	=226	=226	=226
2c]	1G	2r	2e	0r
2B	.	2d	2.d	.
2A	2c	2e	.	.
.	.	.	4c	.
2A	2c	2f	[2c	.
=227	=227	=227	=227	=227
1G	1d	1.g	2c]	2r
.	.	.	2B	2dd
1r	1c	.	2c	2ee
.	.	2f	2cc	2ff
=228	=228	=228	=228	=228
2r	1r	2e	2cc	1.gg
2G	.	2d	2b	.
2A	2r	1f	1a	.
2B	2d	.	.	2ff
=229	=229	=229	=229	=229
1.c	2e	1r	1g	2ee
.	2f	.	.	2dd
.	[1g	2r	2r	2cc
2B	.	2d	2g	[2dd
=230	=230	=230	=230	=230
2A	2g]	2e	2a	4dd]
.	.	.	.	4cc
2A	2f	2f	2a	4cc
.	.	.	.	4b
[1G	2d	[1g	1b	2dd
.	2e	.	.	4g
.	.	.	.	4a
=231	=231	=231	=231	=231
0G_	2d	2g]	2g	4b
.	.	.	.	4cc
.	2d	2f	2d	2.dd
.	2G	1e	2e	.
.	.	.	.	4cc
.	2A	.	2f	[2cc
=232	=232	=232	=232	=232
1G]	1B	1d	1.g	2cc]
.	.	.	.	2b
[1Cl	[1Gl	[1cl	.	[1ccl
.	.	.	2e	.
=233	=233	=233	=233	=233
00C]	00G]	00c]	00el	00cc]
==	==	==	==	==
*-	*-	*-	*-	*-
!!!system-decoration: [*]
!!!RDF**kern: i = editorial accidental
!!!RDF**kern: l = terminal long
!!!ENC: Benjamin Ory
!!!END:	2021/4/7
!!!EED: Benjamin Ory
!!!EEV: 2021/04/26
!!!YEC: Copyright 2021 Benjamin Ory, All Rights Reserved
!!!ONB: Translated from MusicXML on 2021/04/26
